assets/svg/icon_profile_terms.svg

<svg width="24" height="24" viewBox="0 0 24 24" fill="none" xmlns="http://www.w3.org/2000/svg">
<path d="M8.7998 11.4C8.46843 11.4 8.1998 11.6686 8.1998 12C8.1998 12.3314 8.46843 12.6 8.7998 12.6V11.4ZM15.1998 12.6C15.5312 12.6 15.7998 12.3314 15.7998 12C15.7998 11.6686 15.5312 11.4 15.1998 11.4V12.6ZM8.7998 8.2C8.46843 8.2 8.1998 8.46863 8.1998 8.8C8.1998 9.13137 8.46843 9.4 8.7998 9.4V8.2ZM15.1998 9.4C15.5312 9.4 15.7998 9.13137 15.7998 8.8C15.7998 8.46863 15.5312 8.2 15.1998 8.2V9.4ZM8.7998 14.6C8.46843 14.6 8.1998 14.8686 8.1998 15.2C8.1998 15.5314 8.46843 15.8 8.7998 15.8V14.6ZM12.7998 15.8C13.1312 15.8 13.3998 15.5314 13.3998 15.2C13.3998 14.8686 13.1312 14.6 12.7998 14.6V15.8ZM11.1998 4.6H12.7998V3.4H11.1998V4.6ZM18.5998 10.4V13.6H19.7998V10.4H18.5998ZM12.7998 19.4H11.1998V20.6H12.7998V19.4ZM5.3998 13.6V10.4H4.1998V13.6H5.3998ZM11.1998 19.4C9.67435 19.4 8.59061 19.3987 7.76848 19.2882C6.96361 19.18 6.49989 18.977 6.16133 18.6385L5.3128 19.487C5.91149 20.0857 6.67065 20.3514 7.60859 20.4775C8.52926 20.6013 9.70827 20.6 11.1998 20.6V19.4ZM4.1998 13.6C4.1998 15.0915 4.19853 16.2705 4.32231 17.1912C4.44841 18.1292 4.71411 18.8883 5.3128 19.487L6.16133 18.6385C5.82276 18.2999 5.61982 17.8362 5.51161 17.0313C5.40108 16.2092 5.3998 15.1255 5.3998 13.6H4.1998ZM18.5998 13.6C18.5998 15.1255 18.5985 16.2092 18.488 17.0313C18.3798 17.8362 18.1768 18.2999 17.8383 18.6385L18.6868 19.487C19.2855 18.8883 19.5512 18.1292 19.6773 17.1912C19.8011 16.2705 19.7998 15.0915 19.7998 13.6H18.5998ZM12.7998 20.6C14.2913 20.6 15.4703 20.6013 16.391 20.4775C17.329 20.3514 18.0881 20.0857 18.6868 19.487L17.8383 18.6385C17.4997 18.977 17.036 19.18 16.2311 19.2882C15.409 19.3987 14.3253 19.4 12.7998 19.4V20.6ZM12.7998 4.6C14.3253 4.6 15.409 4.60127 16.2311 4.71181C17.036 4.82002 17.4997 5.02295 17.8383 5.36152L18.6868 4.51299C18.0881 3.9143 17.329 3.64861 16.391 3.52251C15.4703 3.39873 14.2913 3.4 12.7998 3.4V4.6ZM19.7998 10.4C19.7998 8.90847 19.8011 7.72946 19.6773 6.80878C19.5512 5.87084 19.2855 5.11168 18.6868 4.51299L17.8383 5.36152C18.1768 5.70009 18.3798 6.16381 18.488 6.96868C18.5985 7.79081 18.5998 8.87454 18.5998 10.4H19.7998ZM11.1998 3.4C9.70827 3.4 8.52926 3.39873 7.60859 3.52251C6.67065 3.64861 5.91149 3.9143 5.3128 4.51299L6.16133 5.36152C6.49989 5.02295 6.96361 4.82002 7.76848 4.71181C8.59061 4.60127 9.67435 4.6 11.1998 4.6V3.4ZM5.3998 10.4C5.3998 8.87454 5.40108 7.79081 5.51161 6.96868C5.61982 6.16381 5.82276 5.70009 6.16133 5.36152L5.3128 4.51299C4.71411 5.11168 4.44841 5.87084 4.32231 6.80878C4.19853 7.72946 4.1998 8.90847 4.1998 10.4H5.3998ZM8.7998 12.6H15.1998V11.4H8.7998V12.6ZM8.7998 9.4H15.1998V8.2H8.7998V9.4ZM8.7998 15.8H12.7998V14.6H8.7998V15.8Z" fill="#0166FF"/>
</svg>

<svg xmlns="http://www.w3.org/2000/svg" width="24" height="24" fill="none"><path fill="#0166FF" d="M8.8 11.4a.6.6 0 1 0 0 1.2zm6.4 1.2a.6.6 0 1 0 0-1.2zM8.8 8.2a.6.6 0 0 0 0 1.2zm6.4 1.2a.6.6 0 1 0 0-1.2zm-6.4 5.2a.6.6 0 1 0 0 1.2zm4 1.2a.6.6 0 1 0 0-1.2zM11.2 4.6h1.6V3.4h-1.6zm7.4 5.8v3.2h1.2v-3.2zm-5.8 9h-1.6v1.2h1.6zm-7.4-5.8v-3.2H4.2v3.2zm5.8 5.8c-1.526 0-2.61-.001-3.432-.112-.804-.108-1.268-.311-1.607-.65l-.848.849c.598.599 1.358.864 2.296.99.92.124 2.1.123 3.59.123zm-7-5.8c0 1.492-.001 2.67.122 3.591.126.938.392 1.697.99 2.296l.85-.848c-.34-.34-.542-.803-.65-1.608-.11-.822-.112-1.905-.112-3.431zm14.4 0c0 1.526-.002 2.61-.112 3.431-.108.805-.311 1.269-.65 1.608l.849.848c.598-.599.864-1.358.99-2.296.124-.92.123-2.1.123-3.591zm-5.8 7c1.491 0 2.67.001 3.591-.123.938-.126 1.697-.391 2.296-.99l-.849-.848c-.338.338-.802.541-1.607.65-.822.11-1.906.111-3.431.111zm0-16c1.525 0 2.609.001 3.431.112.805.108 1.269.311 1.607.65l.849-.849c-.599-.599-1.358-.864-2.296-.99-.92-.124-2.1-.123-3.591-.123zm7 5.8c0-1.492.001-2.67-.123-3.591-.126-.938-.392-1.697-.99-2.296l-.849.849c.339.338.542.802.65 1.607.11.822.112 1.906.112 3.431zm-8.6-7c-1.492 0-2.67-.001-3.591.123-.938.126-1.698.391-2.296.99l.848.849c.339-.34.803-.542 1.607-.65.823-.11 1.906-.112 3.432-.112zm-5.8 7c0-1.525.001-2.61.112-3.431.108-.805.31-1.269.65-1.607l-.85-.849c-.598.599-.864 1.358-.99 2.296-.123.92-.122 2.1-.122 3.591zm3.4 2.2h6.4v-1.2H8.8zm0-3.2h6.4V8.2H8.8zm0 6.4h4v-1.2h-4z"/></svg>
